icons/hard-drive-fill.svg

<svg viewBox="0 0 24 24" fill="currentColor" xmlns="http://www.w3.org/2000/svg">
    <path d="M13.9506 2H20C20.5523 2 21 2.44772 21 3V21C21 21.5523 20.5523 22 20 22H4C3.44772 22 3 21.5523 3 21V12.9506C3.32891 12.9833 3.6625 13 4 13C9.52285 13 14 8.52285 14 3C14 2.6625 13.9833 2.32891 13.9506 2ZM15 16V18H17V16H15ZM11.9381 2C11.979 2.32759 12 2.66134 12 3C12 7.41828 8.41828 11 4 11C3.66134 11 3.32759 10.979 3 10.9381V3C3 2.44772 3.44772 2 4 2H11.9381Z"/>
</svg>

<svg xmlns="http://www.w3.org/2000/svg" viewBox="0 0 24 24">
    <g>
        <path fill="none" d="M0 0h24v24H0z"/>
        <path d="M13.95 2H20a1 1 0 0 1 1 1v18a1 1 0 0 1-1 1H4a1 1 0 0 1-1-1v-8.05c.329.033.663.05 1 .05 5.523 0 10-4.477 10-10 0-.337-.017-.671-.05-1zM15 16v2h2v-2h-2zM11.938 2A8 8 0 0 1 3 10.938V3a1 1 0 0 1 1-1h7.938z"/>
    </g>
</svg>
